svg/alarm_panel_outline.svg

<svg xmlns="http://www.w3.org/2000/svg" viewBox="0 0 24 24"><path d="M9 12H6v-2h3zm4.5-2h-3v2h3zm4.5 0h-3v2h3zm0-4H6v3h12zm2-1H4v14h16zm0-2c1.1 0 2 .9 2 2v14c0 1.1-.9 2-2 2H4c-1.1 0-2-.9-2-2V5c0-1.1.9-2 2-2zM9 13H6v2h3zm4.5 0h-3v2h3zm4.5 0h-3v2h3zm-9 3H6v2h3zm4.5 0h-3v2h3zm4.5 0h-3v2h3z"/></svg>

<?xml version="1.0" encoding="UTF-8"?><!DOCTYPE svg PUBLIC "-//W3C//DTD SVG 1.1//EN" "http://www.w3.org/Graphics/SVG/1.1/DTD/svg11.dtd"><svg xmlns="http://www.w3.org/2000/svg" xmlns:xlink="http://www.w3.org/1999/xlink" version="1.1" id="mdi-alarm-panel-outline" width="24" height="24" viewBox="0 0 24 24"><path d="M9 12H6V10H9V12M13.5 10H10.5V12H13.5V10M18 10H15V12H18V10M18 6H6V9H18V6M20 5H4L4 19L20 19L20 5L20 5M20 3C21.1 3 22 3.9 22 5V19C22 20.1 21.1 21 20 21H4C2.9 21 2 20.1 2 19V5C2 3.9 2.9 3 4 3H20M9 13H6V15H9V13M13.5 13H10.5V15H13.5V13M18 13H15V15H18V13M9 16H6V18H9V16M13.5 16H10.5V18H13.5V16M18 16H15V18H18V16Z" /></svg>
